Sweet-Rainbow/icons/distributor-logo-archbang.svg

<?xml version="1.0" encoding="UTF-8" standalone="no"?>
<!-- Generator: Gravit.io -->

<svg
   xmlns:dc="http://purl.org/dc/elements/1.1/"
   xmlns:cc="http://creativecommons.org/ns#"
   xmlns:rdf="http://www.w3.org/1999/02/22-rdf-syntax-ns#"
   xmlns:svg="http://www.w3.org/2000/svg"
   xmlns="http://www.w3.org/2000/svg"
   xmlns:sodipodi="http://sodipodi.sourceforge.net/DTD/sodipodi-0.dtd"
   xmlns:inkscape="http://www.inkscape.org/namespaces/inkscape"
   style="isolation:isolate"
   viewBox="0 0 36 36"
   width="48"
   height="48"
   version="1.1"
   id="svg9"
   sodipodi:docname="distributor-logo-archbang.svg"
   inkscape:version="0.92.4 (5da689c313, 2019-01-14)">
  <metadata
     id="metadata15">
    <rdf:RDF>
      <cc:Work
         rdf:about="">
        <dc:format>image/svg+xml</dc:format>
        <dc:type
           rdf:resource="http://purl.org/dc/dcmitype/StillImage" />
        <dc:title></dc:title>
      </cc:Work>
    </rdf:RDF>
  </metadata>
  <defs
     id="defs13" />
  <sodipodi:namedview
     pagecolor="#ffffff"
     bordercolor="#666666"
     borderopacity="1"
     objecttolerance="10"
     gridtolerance="10"
     guidetolerance="10"
     inkscape:pageopacity="0"
     inkscape:pageshadow="2"
     inkscape:window-width="640"
     inkscape:window-height="480"
     id="namedview11"
     showgrid="false"
     inkscape:zoom="29.365243"
     inkscape:cx="25.325443"
     inkscape:cy="32"
     inkscape:current-layer="svg9"
     units="px" />
  <linearGradient
     id="_lgradient_16"
     x1="0"
     y1="0.5"
     x2="1"
     y2="0.5"
     gradientTransform="matrix(40,0,0,46.752,4,0.624)"
     gradientUnits="userSpaceOnUse">
    <stop
       offset="0%"
       stop-opacity="1"
       style="stop-color:rgb(178,254,250)"
       id="stop2" />
    <stop
       offset="98.26086956521739%"
       stop-opacity="1"
       style="stop-color:rgb(14,210,247)"
       id="stop4" />
  </linearGradient>
  <g
     id="g826"
     transform="matrix(0.77001724,0,0,0.77001724,-0.48041376,-0.48049075)">
    <path
       id="path7"
       d="m 24.842,13.876 c -0.499,0.077 -1.093,0.119 -1.737,0.121 0.264,-0.611 0.569,-1.313 0.895,-2.057 0.306,0.7 0.595,1.363 0.842,1.936 z m -1.832,0.34 C 23.077,16.008 24,16.196 24,21 c 0,4 -1,10 -1,10 l 3,-2 1.807,-8.331 v 0 c 2.49,5.593 4.591,9.69 11.624,22.132 v 0 C 39.431,42.801 30.172,37.4 24,37.4 17.828,37.4 8.569,42.801 8.569,42.801 17.931,26.239 18.555,24.463 23.01,14.216 Z M 23.5,33 c -1.381,0 -2.5,1.119 -2.5,2.5 0.001,0.625 0.237,1.228 0.66,1.688 C 22.464,37.076 23.253,37 24,37 c 0.467,0 0.95,0.027 1.441,0.072 C 25.802,36.627 25.999,36.073 26,35.5 26,34.119 24.881,33 23.5,33 Z m 13.656,13.768 c -1.6,-0.926 -3.257,-1.749 -4.961,-2.481 -1.451,-0.651 -2.949,-1.2 -4.48,-1.657 C 27.018,42.424 26.32,42.253 25.623,42.127 25.086,42.035 24.537,41.978 24,41.978 c -0.537,0 -1.086,0.057 -1.623,0.149 -0.697,0.126 -1.395,0.297 -2.092,0.503 -1.531,0.457 -3.029,1.006 -4.48,1.657 -1.704,0.732 -3.361,1.555 -4.961,2.481 C 9.975,47.27 8.969,47.465 7.975,47.339 6.98,47.202 6.055,46.745 5.346,46.047 4.637,45.339 4.18,44.413 4.043,43.418 c -0.137,-0.994 0.057,-2 0.549,-2.868 1.783,-3.144 3.543,-6.287 5.269,-9.453 1.143,-2.081 2.252,-4.172 3.326,-6.287 0.823,-1.634 1.612,-3.292 2.355,-4.949 0.834,-1.863 1.657,-3.715 2.457,-5.578 C 19.977,9.711 21.977,5.162 24,0.624 c 2.023,4.538 4.023,9.087 6.001,13.659 0.8,1.863 1.623,3.715 2.457,5.578 0.743,1.657 1.532,3.315 2.355,4.949 1.074,2.115 2.183,4.206 3.326,6.287 1.726,3.166 3.486,6.309 5.269,9.453 0.492,0.868 0.686,1.874 0.549,2.868 -0.137,0.995 -0.594,1.921 -1.303,2.629 -0.709,0.698 -1.634,1.155 -2.629,1.292 -0.994,0.126 -2,-0.069 -2.869,-0.571 z"
       style="fill:url(#_lgradient_16);fill-rule:evenodd"
       inkscape:connector-curvature="0" />
  </g>
</svg>

<?xml version="1.0" encoding="UTF-8" standalone="no"?><!-- Generator: Gravit.io --><svg xmlns="http://www.w3.org/2000/svg" xmlns:xlink="http://www.w3.org/1999/xlink" style="isolation:isolate" viewBox="0 0 48 48" width="48pt" height="48pt"><linearGradient id="_lgradient_16" x1="0" y1="0.5" x2="1" y2="0.5" gradientTransform="matrix(40,0,0,46.752,4,0.624)" gradientUnits="userSpaceOnUse"><stop offset="0%" stop-opacity="1" style="stop-color:rgb(178,254,250)"/><stop offset="98.26086956521739%" stop-opacity="1" style="stop-color:rgb(14,210,247)"/></linearGradient><path d=" M 24.842 13.876 C 24.343 13.953 23.749 13.995 23.105 13.997 C 23.369 13.386 23.674 12.684 24 11.94 C 24.306 12.64 24.595 13.303 24.842 13.876 Z  M 23.01 14.216 C 23.077 16.008 24 16.196 24 21 C 24 25 23 31 23 31 L 26 29 L 27.807 20.669 L 27.807 20.669 C 30.297 26.262 32.398 30.359 39.431 42.801 L 39.431 42.801 C 39.431 42.801 30.172 37.4 24 37.4 C 17.828 37.4 8.569 42.801 8.569 42.801 C 17.931 26.239 18.555 24.463 23.01 14.216 Z  M 23.5 33 C 22.119 33 21 34.119 21 35.5 C 21.001 36.125 21.237 36.728 21.66 37.188 C 22.464 37.076 23.253 37 24 37 C 24.467 37 24.95 37.027 25.441 37.072 C 25.802 36.627 25.999 36.073 26 35.5 C 26 34.119 24.881 33 23.5 33 L 23.5 33 Z  M 37.156 46.768 C 35.556 45.842 33.899 45.019 32.195 44.287 C 30.744 43.636 29.246 43.087 27.715 42.63 C 27.018 42.424 26.32 42.253 25.623 42.127 C 25.086 42.035 24.537 41.978 24 41.978 C 23.463 41.978 22.914 42.035 22.377 42.127 C 21.68 42.253 20.982 42.424 20.285 42.63 C 18.754 43.087 17.256 43.636 15.805 44.287 C 14.101 45.019 12.444 45.842 10.844 46.768 C 9.975 47.27 8.969 47.465 7.975 47.339 C 6.98 47.202 6.055 46.745 5.346 46.047 C 4.637 45.339 4.18 44.413 4.043 43.418 C 3.906 42.424 4.1 41.418 4.592 40.55 C 6.375 37.406 8.135 34.263 9.861 31.097 C 11.004 29.016 12.113 26.925 13.187 24.81 C 14.01 23.176 14.799 21.518 15.542 19.861 C 16.376 17.998 17.199 16.146 17.999 14.283 C 19.977 9.711 21.977 5.162 24 0.624 C 26.023 5.162 28.023 9.711 30.001 14.283 C 30.801 16.146 31.624 17.998 32.458 19.861 C 33.201 21.518 33.99 23.176 34.813 24.81 C 35.887 26.925 36.996 29.016 38.139 31.097 C 39.865 34.263 41.625 37.406 43.408 40.55 C 43.9 41.418 44.094 42.424 43.957 43.418 C 43.82 44.413 43.363 45.339 42.654 46.047 C 41.945 46.745 41.02 47.202 40.025 47.339 C 39.031 47.465 38.025 47.27 37.156 46.768 L 37.156 46.768 Z " fill-rule="evenodd" fill="url(#_lgradient_16)"/></svg>
